X:22
T:Woo'd & Married & a'
R:slip jig
C:traditional
B:Bremner's Collections, 1757
N:melodic code  531 555
Z:Paul Stewart Cranford (P.S.C.), <http://www.cranfordpub.com>
L:1/8
M:9/8
Q:333
K:F
f|Tc2 B ABG F3|c2 c cdA c2 f|cdB (TA>GA) FGA|D2 d d>ec d2:|
f|cde f>gf Te>dc|A2 c cdA c2 d|cde f>gf Te>dc|A2 d d>ec d2 f|
cde f>ga efg|ABc fcA c2f|cdB ABG FGA|D2 d dec d2|]
